X:20
T:Isle of Sky
S:Petrie's Third Collection of Strathspey Reels and Country Dances &c.
Z:Steve Wyrick , 7/30/05
N:Petrie's Third Collection, page 9
L:1/8
M:C
R:Reel
K:Bb
A|BFDF BFDF|ECC=B cGGA|BFDF BFDF ECF>E DB,B,:|A|Bdfb fdBd|(cBc)d cGGA|
Bdfb fdBd|(cBc)d B/B/B BF|Bdfb fdBd|(cBc)d cGGg|fBgB aBbB|(cBc)d B/B/B B|]
